svg/u1f501.svg

<svg viewBox="0 0 128 128" xmlns="http://www.w3.org/2000/svg">
  <g>
    <path d="M116,4H12c-4.42,0-8,3.58-8,8v104c0,4.42,3.58,8,8,8h104c4.42,0,8-3.58,8-8V12 C124,7.58,120.42,4,116,4z" fill="#F77E00"/>
    <path d="M109.7,4H11.5C7.37,4.03,4.03,7.37,4,11.5v97.9c-0.01,4.14,3.34,7.49,7.48,7.5c0.01,0,0.01,0,0.02,0 h98.1c4.14,0.01,7.49-3.34,7.5-7.48c0-0.01,0-0.01,0-0.02V11.5c0.09-4.05-3.13-7.41-7.18-7.5C109.85,4,109.77,4,109.7,4z" fill="#FF9800"/>
    <path d="M39.7,12.9c0-2.3-1.6-3-10.8-2.7c-7.7,0.3-11.5,1.2-13.8,4 s-2.9,8.5-3,15.3c0,4.8,0,9.3,2.5,9.3c3.4,0,3.4-7.9,6.2-12.3C26.2,17.8,39.7,15.9,39.7,12.9z" opacity="0.75" fill="#FFBD52" enable-background="new "/>
    <path d="M83.6,67c-1.68,1.44-4.2,1.24-5.64-0.44C77.35,65.85,77.01,64.94,77,64V50c0-1.1-0.9-2-2-2H41 c-4.8,0-11.5,1.5-12,12L14.2,73.3l0,0c-0.8-3.03-1.21-6.16-1.2-9.3c0-17.7,12.5-32,28-32h34c1.1,0,2-0.9,2-2V16 c0.02-2.21,1.83-3.98,4.04-3.96c0.94,0.01,1.85,0.35,2.56,0.96l24,24c1.66,1.46,1.82,3.99,0.35,5.65 c-0.11,0.13-0.23,0.24-0.35,0.35L83.6,67z" fill="#FAFAFA"/>
    <path d="M38.4,61c1.68-1.44,4.2-1.24,5.64,0.44c0.61,0.71,0.95,1.62,0.96,2.56v14c0,1.1,0.9,2,2,2h34 c4.8,0,11.6-1.5,12-12l14.8-13.3l0,0c0.81,3.03,1.21,6.16,1.2,9.3c0,17.7-12.5,32-28,32H47c-1.1,0-2,0.9-2,2v14 c-0.02,2.21-1.83,3.98-4.04,3.96c-0.94-0.01-1.85-0.35-2.56-0.96l-24-24c-1.66-1.46-1.82-3.99-0.35-5.65 c0.11-0.13,0.23-0.24,0.35-0.35L38.4,61z" fill="#FAFAFA"/>
  </g>
</svg>

<svg viewBox="0 0 128 128" xmlns="http://www.w3.org/2000/svg">
  <defs/>
  <path d="M116,4 L12,4 C7.58,4 4,7.58 4,12 L4,116 C4,120.42 7.58,124 12,124 L116,124 C120.42,124 124,120.42 124,116 L124,12 C124,7.58 120.42,4 116,4 Z" fill="#F77E00"/>
  <path d="M109.7,4 L11.5,4 C7.37,4.03 4.03,7.37 4,11.5 L4,109.4 C3.99,113.54 7.34,116.89 11.48,116.9 C11.49,116.9 11.49,116.9 11.5,116.9 L109.6,116.9 C113.74,116.91 117.09,113.56 117.1,109.42 C117.1,109.41 117.1,109.41 117.1,109.4 L117.1,11.5 C117.19,7.45 113.97,4.09 109.92,4 C109.85,4 109.77,4 109.7,4 Z" fill="#FF9800"/>
  <path d="M39.7,12.9 C39.7,10.6 38.1,9.9 28.9,10.2 C21.2,10.5 17.4,11.4 15.1,14.2 C12.8,17 12.2,22.7 12.1,29.5 C12.1,34.3 12.1,38.8 14.6,38.8 C18,38.8 18,30.9 20.8,26.5 C26.2,17.8 39.7,15.9 39.7,12.9 Z" fill="#FFBD52" opacity="0.75"/>
  <path d="M83.6,67 C81.92,68.44 79.4,68.24 77.96,66.56 C77.35,65.85 77.01,64.94 77,64 L77,50 C77,48.9 76.1,48 75,48 L41,48 C36.2,48 29.5,49.5 29,60 L14.2,73.3 L14.2,73.3 C13.4,70.27 12.99,67.14 13,64 C13,46.3 25.5,32 41,32 L75,32 C76.1,32 77,31.1 77,30 L77,16 C77.02,13.79 78.83,12.02 81.04,12.04 C81.98,12.05 82.89,12.39 83.6,13 L107.6,37 C109.26,38.46 109.42,40.99 107.95,42.65 C107.84,42.78 107.72,42.89 107.6,43 L83.6,67 Z" fill="#FAFAFA"/>
  <path d="M38.4,61 C40.08,59.56 42.6,59.76 44.04,61.44 C44.65,62.15 44.99,63.06 45,64 L45,78 C45,79.1 45.9,80 47,80 L81,80 C85.8,80 92.6,78.5 93,68 L107.8,54.7 L107.8,54.7 C108.61,57.73 109.01,60.86 109,64 C109,81.7 96.5,96 81,96 L47,96 C45.9,96 45,96.9 45,98 L45,112 C44.98,114.21 43.17,115.98 40.96,115.96 C40.02,115.95 39.11,115.61 38.4,115 L14.4,91 C12.74,89.54 12.58,87.01 14.05,85.35 C14.16,85.22 14.28,85.11 14.4,85 L38.4,61 Z" fill="#FAFAFA"/>
</svg>
